svgs/light/face-disappointed.svg

<svg xmlns="http://www.w3.org/2000/svg" viewBox="0 0 512 512"><!--! Font Awesome Pro 6.4.0 by @fontawesome - https://fontawesome.com License - https://fontawesome.com/license (Commercial License) Copyright 2023 Fonticons, Inc. --><path d="M480 256A224 224 0 1 0 32 256a224 224 0 1 0 448 0zM0 256a256 256 0 1 1 512 0A256 256 0 1 1 0 256zM316.1 410.7c-11.7-13-31.6-26.7-60.1-26.7s-48.4 13.7-60.1 26.7c-5.9 6.6-16 7.1-22.6 1.2s-7.1-16-1.2-22.6C188.2 371.4 216.3 352 256 352s67.8 19.4 83.9 37.3c5.9 6.6 5.4 16.7-1.2 22.6s-16.7 5.4-22.6-1.2zM211.3 267.3l-7.4 7.4c-23.6 23.6-53.9 39.2-86.8 44.7l-2.5 .4c-8.7 1.5-17-4.4-18.4-13.2s4.4-17 13.2-18.4l2.5-.4c26.3-4.4 50.6-16.9 69.5-35.7l7.4-7.4c6.2-6.2 16.4-6.2 22.6 0s6.2 16.4 0 22.6zm89.4 0c-6.2-6.2-6.2-16.4 0-22.6s16.4-6.2 22.6 0l7.4 7.4c18.9 18.9 43.2 31.4 69.5 35.7l2.5 .4c8.7 1.5 14.6 9.7 13.2 18.4s-9.7 14.6-18.4 13.2l-2.5-.4c-32.9-5.5-63.3-21.1-86.8-44.7l-7.4-7.4z"/></svg>

<svg xmlns="http://www.w3.org/2000/svg" viewBox="0 0 512 512"><!--! Font Awesome Pro 6.3.0 by @fontawesome - https://fontawesome.com License - https://fontawesome.com/license (Commercial License) Copyright 2023 Fonticons, Inc. --><path d="M256 384C227.5 384 207.6 397.7 195.9 410.7C189.1 417.3 179.9 417.8 173.3 411.9C166.7 405.1 166.2 395.9 172.1 389.3C188.2 371.4 216.3 352 256 352C295.7 352 323.8 371.4 339.9 389.3C345.8 395.9 345.3 405.1 338.7 411.9C332.1 417.8 322 417.3 316.1 410.7C304.4 397.7 284.5 384 256 384H256zM211.3 267.3L203.9 274.7C180.4 298.3 150 313.9 117.1 319.4L114.6 319.8C105.9 321.2 97.67 315.3 96.22 306.6C94.76 297.9 100.7 289.7 109.4 288.2L111.9 287.8C138.2 283.4 162.5 270.9 181.3 252.1L188.7 244.7C194.9 238.4 205.1 238.4 211.3 244.7C217.6 250.9 217.6 261.1 211.3 267.3V267.3zM300.7 267.3C294.4 261.1 294.4 250.9 300.7 244.7C306.9 238.4 317.1 238.4 323.3 244.7L330.7 252.1C349.5 270.9 373.8 283.4 400.2 287.8L402.6 288.2C411.3 289.7 417.2 297.9 415.8 306.6C414.3 315.3 406.1 321.2 397.4 319.8L394.9 319.4C361.1 313.9 331.6 298.3 308.1 274.7L300.7 267.3zM512 256C512 397.4 397.4 512 256 512C114.6 512 0 397.4 0 256C0 114.6 114.6 0 256 0C397.4 0 512 114.6 512 256zM256 32C132.3 32 32 132.3 32 256C32 379.7 132.3 480 256 480C379.7 480 480 379.7 480 256C480 132.3 379.7 32 256 32z"/></svg>
